X: 1
T: Will You Come Home with Me?
C: trad.
O: Ireland
%D:1873
R: jig
S: Fiddle Hell Online 2021-11-04
Z: 2021 John Chambers <jc:trillian.mit.edu>
M: 6/8
L: 1/8
K: G
B2c !segno!|:\
dge fdc | B2B cAF | GFG ABA | GFG ABc |\
dge fdc | B2B cAF | GFG ABA | GAG GBc :|
|:\
d2B c2A | BAB cAF | GFG ABA | GFG ABc |\
d2B c2A | BdB cAF | GFG ABA | GAG GB!segno!c :|
